!!!COM: Vivaldi, Antonio Lucio
!!!CDT: 1678/03/04-1741/08/28
!!!OPR: 12 sonatas for two violins and basso continuo
!!!OTL: Sonata in E-flat major, op. @{OPS}, no. @{ONM} (@{SCT})
!!!OPS: 1
!!!ONM: 7
!!!OMV: 2. Allemanda
!!!SCT: RV 73
!!!SCA: Antonio Vivaldi: Thematisch-systematisches Verzeichnis seiner Werke (Ryom-Verzeichnis)
!!!OMD: Allegro
!!!key: E-
**kern	**dynam	**fb	**kern	**dynam	**kern	**dynam
*part3	*	*	*part2	*	*part1	*
*staff3	*	*	*staff2	*	*staff1	*
*ICstr&ICklav	*	*	*ICstr	*	*ICstr	*
*Icello&Icemba	*	*	*Ivioln	*	*Ivioln	*
*	*	*	*I#2	*	*I#1	*
*I"Violoncello\nContinuo	*	*	*I"Violin 2	*	*I"Violin 1	*
*I'bc	*	*	*I'v2	*	*I'v1	*
*>[A,A,B,B]	*>[A,A,B,B]	*>[A,A,B,B]	*>[A,A,B,B]	*>[A,A,B,B]	*>[A,A,B,B]	*>[A,A,B,B]
*>norep[A,B]	*>norep[A,B]	*>norep[A,B]	*>norep[A,B]	*>norep[A,B]	*>norep[A,B]	*>norep[A,B]
*>A	*>A	*>A	*>A	*>A	*>A	*>A
*clefF4	*	*	*clefG2	*	*clefG2	*
*	*	*	*	*	*	*
*M4/4	*	*	*M4/4	*	*M4/4	*
*met(c)	*	*	*met(c)	*	*met(c)	*
*MM106	*	*	*MM106	*	*MM106	*
*E-:	*	*	*E-:	*	*E-:	*
16E-y\	.	.	16gg\	.	16bb-y\	.
=1	=1	=1	=1	=1	=1	=1
4E-y\	.	.	4gg\	.	4bb-y\	.
8r	.	.	8r	.	8r	.
16r	.	.	16r	.	16r	.
16G\	.	.	16ee-y\	.	16bb-y\	.
8.G\L	.	6	8.ee-y\L	.	8.bb-y\L	.
16D\k	.	.	16ff\k	.	16aa-X\k	.
8.D\	.	6 5-r	8.ff\	.	8.aa-y\	.
16E-y\Jk	.	.	16b-y\Jk	.	16gg\Jk	.
=2	=2	=2	=2	=2	=2	=2
4E-y\	.	.	4b-y\	.	4gg\	.
4r	.	.	8r	.	8r	.
.	.	.	16ee-y\LL	.	16gg\LL	.
.	.	.	16ff\JJ	.	16aa-X\JJ	.
4E-y\	.	.	8gg\L	.	8bb-y\L	.
.	.	.	8gg\J	.	8bb-y\J	.
8r	.	.	8gg\L	.	8bb-y\L	.
8A-X\	.	6	16ff\L	.	16aa-X\L	.
.	.	.	16ee-y\JJ	.	16gg\JJ	.
=3	=3	=3	=3	=3	=3	=3
4B-y\	.	.	4dd\	.	8ff\L	.
.	.	.	.	.	8b-y\	.
4r	.	.	4r	.	8.ee-y\	.
.	.	.	.	.	16ee-y\Jk	.
8G/L	.	.	16b-y\LL	.	8ee-y\L	.
.	.	.	16cc\	.	.	.
8GG/J	.	.	16b-y\	.	16gg\L	.
.	.	.	16a-X\JJ	.	16ff\JJ	.
8r	.	.	8g/L	.	8ee-y\L	.
8G\	.	5-r	8b-y/J	.	8dd-X\J	.
=4	=4	=4	=4	=4	=4	=4
8A-X\L	.	5 4-r	4e-y/	.	8dd-y\L	.
8AA-X\J	.	3	.	.	8cc\	.
4r	.	.	4r	.	8.ff\	.
.	.	.	.	.	16ff\Jk	.
8An\L	.	6	16cc\LL	.	8ff\L	.
.	.	.	16dd\	.	.	.
8AAn\J	.	.	16cc\	.	8ee-y\J	.
.	.	.	16b-y\JJ	.	.	.
8r	.	.	8an\L	.	8ee-y\L	.
8A\	.	5-r	8cc\J	.	16ddn\L	.
.	.	.	.	.	16cc\JJ	.
!!LO:LB:g=original
=5	=5	=5	=5	=5	=5	=5
8B-y\L	.	.	4f/	.	4dd\	.
8BB-y\J	.	.	.	.	.	.
4r	.	.	4r	.	8.gg\L	.
.	.	.	.	.	16gg\Jk	.
8Bn\L	.	6	16dd\LL	.	8gg\L	.
.	.	.	16ee-y\	.	.	.
8BBn\J	.	.	16dd\	.	8aa-X\	.
.	.	.	16cc\JJ	.	.	.
8r	.	.	8bn\L	.	8gg\	.
8B\	.	5nr	8dd\J	.	8ff\J	.
=6	=6	=6	=6	=6	=6	=6
8c\L	.	.	4g/	.	8ee-y\L	.
8C\J	.	.	.	.	16dd\L	.
.	.	.	.	.	16cc\JJ	.
4r	.	.	4r	.	8.aa-X\L	.
.	.	.	.	.	16aa-y\Jk	.
8F/L	.	-	4r	.	8.aa-X\L	.
8FF/J	.	.	.	.	.	.
.	.	.	.	.	16gg\Jk	.
8r	.	.	8.aa-X\L	.	16ff\LL	.
.	.	.	.	.	16ee-y\	.
8F\	.	6 -	.	.	16dd\	.
.	.	.	16aa-y\Jk	.	16cc\JJ	.
=7	=7	=7	=7	=7	=7	=7
8D/L	.	6 5-r	8.aa-y\L	.	[4b-y\	.
8DD/J	.	.	.	.	.	.
.	.	.	16gg\Jk	.	.	.
8r	.	.	16ff\LL	.	16b-y\LL]	.
.	.	.	16ee-y\	.	16aa-X\	.
8D\	.	.	16dd\	.	16ff\	.
.	.	.	16cc\JJ	.	16aa-y\JJ	.
8E-y\L	.	.	8b-y\L	.	8gg\L	.
8A-X\	.	.	8cc\J	.	16ff\L	.
.	.	.	.	.	16ee-y\JJ	.
8B-y\	.	.	8f/L	.	8.dd\Lt	.
8BB-y\J	.	.	8b-y/J	.	.	.
.	.	.	.	.	16ee-y\Jk	.
=8	=8	=8	=8	=8	=8	=8
4E-y\	.	.	4g/	.	16ee-y\LL	.
.	.	.	.	.	16b-y\	.
.	.	.	.	.	16ee-y\	.
.	.	.	.	.	16gg\JJ	.
4G\	.	6	2ee-y\	.	16bb-y\LL	.
.	.	.	.	.	16gg\	.
.	.	.	.	.	16ee-y\	.
.	.	.	.	.	16gg\JJ	.
4B-y\	.	5 4	.	.	16ff\LL	.
.	.	.	.	.	16b-y\	.
.	.	.	.	.	16dd\	.
.	.	.	.	.	16ff\JJ	.
4BB-y/	.	3	4dd\	.	16bb-y\LL	.
.	.	.	.	.	16ff\	.
.	.	.	.	.	16dd\	.
.	.	.	.	.	16ff\JJ	.
!!LO:LB:g=original
=9	=9	=9	=9	=9	=9	=9
4E-y\	.	.	16ee-y\LL	.	4gg\	.
.	.	.	16b-y\	.	.	.
.	.	.	16ee-y\	.	.	.
.	.	.	16gg\JJ	.	.	.
4G\	.	6	16bb-y\LL	.	2ee-y\	.
.	.	.	16gg\	.	.	.
.	.	.	16ee-y\	.	.	.
.	.	.	16gg\JJ	.	.	.
4B-y\	.	5 4	16ff\LL	.	.	.
.	.	.	16b-y\	.	.	.
.	.	.	16dd\	.	.	.
.	.	.	16ff\JJ	.	.	.
4BB-y/	.	3	16bb-y\LL	.	4dd\	.
.	.	.	16ff\	.	.	.
.	.	.	16dd\	.	.	.
.	.	.	16ff\JJ	.	.	.
=10	=10	=10	=10	=10	=10	=10
4E-y\	.	.	4gg\	.	16ee-y/LL	.
.	.	.	.	.	16e-y/	.
.	.	.	.	.	16g/	.
.	.	.	.	.	16b-y/JJ	.
4r	.	.	4r	.	16ee-y\LL	.
.	.	.	.	.	16gg\	.
.	.	.	.	.	16ee-y\	.
.	.	.	.	.	16cc\JJ	.
8F\L	.	.	8cc\L	.	8a/L	.
8F\	.	.	8cc\	.	8a/J	.
8E-y\	.	6 4	8cc\	.	(8.a/Lt	.
8E-y\J	.	.	8cc\J	.	.	.
.	.	.	.	.	32g/LL	.
.	.	.	.	.	32a/JJJ)	.
=11	=11	=11	=11	=11	=11	=11
4D\	.	6	4f/	.	16b-y/LL	.
.	.	.	.	.	16f/	.
.	.	.	.	.	16b-y/	.
.	.	.	.	.	16dd/JJ	.
4r	.	.	4r	.	16ff\LL	.
.	.	.	.	.	16aa-X\	.
.	.	.	.	.	16ff\	.
.	.	.	.	.	16dd\JJ	.
8G\L	.	n	8dd\L	.	8bn\L	.
8G\	.	.	8dd\	.	8b\J	.
8F\	.	6 4nr	8dd\	.	(8.b/Lt	.
8F\J	.	.	8dd\J	.	.	.
.	.	.	.	.	32a/LL	.
.	.	.	.	.	32b/JJJ)	.
=12	=12	=12	=12	=12	=12	=12
4E-y\	.	6	4g/	.	8cc\L	.
.	.	.	.	.	(16gg\L	.
.	.	.	.	.	16ff\JJ)	.
4r	.	.	4r	.	(16ee-y\LL	.
.	.	.	.	.	16dd\)	.
.	.	.	.	.	(16cc\	.
.	.	.	.	.	16bn\JJ)	.
4.E-y\	.	.	8r	.	8cc\L	.
.	.	.	(16gg\LL	.	(16ee-y\L	.
.	.	.	16ff\JJ)	.	16dd\JJ)	.
.	.	.	(16ee-y\LL	.	8cc\L	.
.	.	.	16dd\)	.	.	.
8E-y\	.	.	(16cc\	.	8cc\J	.
.	.	.	16b-y\JJ)	.	.	.
!!LO:LB:g=original
=13	=13	=13	=13	=13	=13	=13
4F\	.	-	4a-X/	.	8cc\L	.
.	.	.	.	.	(16aa-X\L	.
.	.	.	.	.	16gg\JJ)	.
4r	.	.	4r	.	(16ff\LL	.
.	.	.	.	.	16ee-y\)	.
.	.	.	.	.	(16dd-X\	.
.	.	.	.	.	16cc\JJ)	.
4.F\	.	6-r -	8r	.	8dd-X\L	.
.	.	.	(16aa-X\LL	.	(16ff\L	.
.	.	.	16gg\JJ)	.	16ee-y\JJ)	.
.	.	.	(16ff\LL	.	8ff\L	.
.	.	.	16ee-y\)	.	.	.
8F\	.	.	16dd-X\	.	8ff\J	.
.	.	.	16cc\JJ	.	.	.
=14	=14	=14	=14	=14	=14	=14
8G\L	.	7 n	8bn\L	.	4.ff\	.
8A\	.	.	8cc\	.	.	.
8Bn\	.	6 5	8dd\	.	.	.
8G\J	.	.	8bn\J	.	16ee-y\LL	.
.	.	.	.	.	16dd\JJ	.
8c\L	.	.	8g\L	.	8ee-y\L	.
16E-y\L	.	.	8gg\	.	16dd\L	.
16F\JJ	.	.	.	.	16cc\JJ	.
8G/L	.	n	8bn\	.	8g/L	.
8GG/J	.	.	8gg\J	.	8bn/J	.
=15	=15	=15	=15	=15	=15	=15
4C/	.	.	8ee-y\L	.	4cc\	.
.	.	.	8g\J	.	.	.
8r	.	.	2cc\	.	8r	.
8E-y\	.	6	.	.	8g/	.
4D\	.	7 #	.	.	4ff#X\	.
8GG/L	.	.	4b-y\	.	[4gg\	.
8BB-y/J	.	.	.	.	.	.
=16	=16	=16	=16	=16	=16	=16
8C/L	.	6 5	2a/	.	4gg\]	.
8AA/J	.	.	.	.	.	.
8D/L	.	#	.	.	4ff#X\t	.
8DD/J	.	.	.	.	.	.
4.GG/	.	.	4.g/	.	4.gg\	.
16r	.	.	16r	.	16r	.
=:|!|:	=:|!|:	=:|!|:	=:|!|:	=:|!|:	=:|!|:	=:|!|:
*>B	*>B	*>B	*>B	*>B	*>B	*>B
16G\	.	.	16b-y\	.	16dd\	.
=17	=17	=17	=17	=17	=17	=17
4G\	.	.	4b-y\	.	4dd\	.
8r	.	.	8r	.	8r	.
16r	.	.	16r	.	16r	.
16B-y\	.	6	16dd\	.	16gg\	.
8.B-y\L	.	.	8.dd\L	.	8.gg\L	.
16En\k	.	.	16gg\k	.	16bb-y\k	.
8.E\	.	6 5	8.gg\	.	8.bb-y\	.
16F\Jk	.	-	16cc\Jk	.	16aa-X\Jk	.
!!LO:PB:g=original
=18	=18	=18	=18	=18	=18	=18
4F\	.	.	4cc\	.	4aa-y\	.
8r	.	.	8r	.	8r	.
16r	.	.	16r	.	16r	.
16d\	.	#	16ff#X\	.	16aan\	.
8.d\L	.	.	8.ff#y\L	.	8.aa\L	.
16F#X\k	.	.	16aa\k	.	16ccc\k	.
8.F#y\	.	6 5	8.aa\	.	8.ccc\	.
16G\Jk	.	.	16dd\Jk	.	16bb-y\Jk	.
=19	=19	=19	=19	=19	=19	=19
4G\	.	.	4dd\	.	8bb-y\L	.
.	.	.	.	.	8gg\J	.
8r	.	.	8r	.	[4ee-y\	.
8G\	.	.	8b-y\	.	.	.
8F#X/L	.	7	[4a/	.	16ee-y\LL]	.
.	.	.	.	.	16ee-y\	.
8FF#X/J	.	.	.	.	16dd\	.
.	.	.	.	.	16cc\JJ	.
8r	.	.	16a/LL]	.	[4dd\	.
.	.	.	16a/	.	.	.
8Fn\	.	6	16b-y/	.	.	.
.	.	.	16a/JJ	.	.	.
=20	=20	=20	=20	=20	=20	=20
8En/L	.	7	[4g/	.	16dd\LL]	.
.	.	.	.	.	16dd\	.
8EEn/J	.	.	.	.	16cc\	.
.	.	.	.	.	16b-y\JJ	.
8r	.	.	16g/LL]	.	[4cc\	.
.	.	.	16g/	.	.	.
8E-X\	.	6	16a/	.	.	.
.	.	.	16g/JJ	.	.	.
8D/L	.	7	4f/	.	8cc/L]	.
8DD/J	.	.	.	.	8f/J	.
8r	.	.	8r	.	[4b-y\	.
8D\	.	6	8f/	.	.	.
=21	=21	=21	=21	=21	=21	=21
8E-y/L	.	6 5	4.cc\	.	8b-y/L]	.
8EE-y/	.	.	.	.	16a/L	.
.	.	.	.	.	16g/JJ	.
8F/	.	.	.	.	8a\L	.
8FF/J	.	.	8cc\	.	16ff\L	.
.	.	.	.	.	16ee-y\JJ	.
4BB-y/	.	.	4b-y\	.	16dd\LL	.
.	.	.	.	.	16b-y\	.
.	.	.	.	.	16dd\	.
.	.	.	.	.	16ff\JJ	.
4r	.	.	4r	.	16bb-y\LL	.
.	.	.	.	.	16dd\	.
.	.	.	.	.	16ff\	.
.	.	.	.	.	16bb-y\JJ	.
!!LO:LB:g=original
=22	=22	=22	=22	=22	=22	=22
8c\L	.	n	8gg\L	.	8een\L	.
8c\	.	.	8gg\	.	8ee\J	.
8B-y\	.	6 4nr	8gg\	.	8.ee\Lt	.
8B-y\J	.	.	8gg\J	.	.	.
.	.	.	.	.	32dd\LL	.
.	.	.	.	.	32ee\JJJ	.
4A-X\	.	6	4cc\	.	16ff\LL	.
.	.	.	.	.	16cc\	.
.	.	.	.	.	16ff\	.
.	.	.	.	.	16gg\JJ	.
4r	.	.	4r	.	16aa-X\LL	.
.	.	.	.	.	16ff\	.
.	.	.	.	.	16cc\	.
.	.	.	.	.	16ff\JJ	.
=23	=23	=23	=23	=23	=23	=23
8B-y\L	.	.	8ff\L	.	8dd\L	.
8B-y\	.	.	8ff\	.	8dd\J	.
8A-X\	.	6 4	8ff\	.	8.dd\LT	.
8A-y\J	.	.	8ff\J	.	.	.
.	.	.	.	.	32cc\LL	.
.	.	.	.	.	32dd\JJJ	.
4G\	.	6	4b-y\	.	8ee-y\L	.
.	.	.	.	.	8b-y\J	.
8r	.	.	8r	.	[4ee-y\	.
8G\	.	.	8b-y\	.	.	.
=24	=24	=24	=24	=24	=24	=24
4A-X\	.	6 5	4.ff\	.	8ee-y\L]	.
.	.	.	.	.	16dd\L	.
.	.	.	.	.	16cc\JJ	.
8B-y\L	.	.	.	.	8dd\L	.
8BB-y\J	.	.	8ff\	.	16bb-y\L	.
.	.	.	.	.	16aa-X\JJ	.
8E-y\L	.	.	4b-y\	.	8gg\L	.
16E-y\L	.	.	.	.	8ee-y\J	.
16F\JJ	.	.	.	.	.	.
8G\L	.	6	4r	.	8r	.
8F\J	.	.	.	.	8b-y\	.
=25	=25	=25	=25	=25	=25	=25
8E-y/L	.	.	4b-y\	.	8ee-y\L	.
8EE-y/J	.	.	.	.	16ff\L	.
.	.	.	.	.	16gg\JJ	.
8r	.	.	8r	.	8e-y/L	.
8G\	.	5-r	8b-y\	.	8dd-X/J	.
8A-X\L	.	.	4e-y/	.	8cc/L	.
8AA-X\J	.	.	.	.	8A-X/	.
4r	.	.	4r	.	8A-y/	.
.	.	.	.	.	8cc/J	.
!!LO:LB:g=original
=26	=26	=26	=26	=26	=26	=26
8An\L	.	6	4cc\	.	8ff\L	.
8AAn\J	.	.	.	.	16gg\L	.
.	.	.	.	.	16aan\JJ	.
8r	.	.	8r	.	8f/L	.
8A\	.	5-r	8cc\	.	8ee-y/J	.
8B-y\L	.	.	4f/	.	8dd/L	.
8BB-y\J	.	.	.	.	8B-y/	.
4r	.	.	4r	.	8B-y/	.
.	.	.	.	.	8dd/J	.
=27	=27	=27	=27	=27	=27	=27
8Bn\L	.	6 5	4dd\	.	8gg\L	.
8BBn\J	.	.	.	.	16aa-X\L	.
.	.	.	.	.	16gg\JJ	.
8r	.	.	8r	.	8bn\L	.
8Bn\	.	.	8dd\	.	8ff\J	.
8c\L	.	.	4g/	.	8ee-y/L	.
8C\J	.	.	.	.	8c/J	.
4r	.	.	4r	.	8.aa-X\L	.
.	.	.	.	.	16aa-y\Jk	.
=28	=28	=28	=28	=28	=28	=28
8F\L	.	-	4r	.	8.aa-X\L	.
8G\	.	.	.	.	.	.
.	.	.	.	.	16gg\Jk	.
8A-X\	.	.	8.aa-X\L	.	16ff\LL	.
.	.	.	.	.	16ee-y\	.
8F\J	.	.	.	.	16dd\	.
.	.	.	16aa-y\Jk	.	16cc\JJ	.
4.D\	.	6 5-r	8.aa-y\L	.	[4b-y\	.
.	.	.	16gg\Jk	.	.	.
.	.	.	16ff\LL	.	16b-y\LL]	.
.	.	.	16ee-y\	.	16aa-X\	.
8D\	.	.	16dd\	.	16ff\	.
.	.	.	16cc\JJ	.	16aa-y\JJ	.
=29	=29	=29	=29	=29	=29	=29
8E-y\L	.	.	8b-y/L	.	8gg\L	.
8A-X\	.	.	8cc/	.	16ff\L	.
.	.	.	.	.	16ee-y\JJ	.
8B-y\	.	.	8f/	.	8.dd\Lt	.
8BB-y\J	.	.	8b-y/J	.	.	.
.	.	.	.	.	16ee-y\Jk	.
4E-y\	.	.	4g/	.	4ee-y\	.
4r	.	.	4r	.	8r	.
.	.	.	.	.	8b-y\	p
=30	=30	=30	=30	=30	=30	=30
8G/L	p	6	4b-y\	p	8ee-y\L	.
8GG/J	.	.	.	.	(16gg\L	.
.	.	.	.	.	16ff\JJ)	.
8r	.	.	8r	.	(16ee-y\LL	.
.	.	.	.	.	16dd\)	.
8G\	.	5	8b-y\	.	(16cc\	.
.	.	.	.	.	16b-y\JJ)	.
8A-X\L	.	.	4e-y/	.	8cc/L	.
8AA-X\J	.	.	.	.	8A-X/	.
4r	.	.	4r	.	8A-y/	.
.	.	.	.	.	8cc/J	.
!!LO:LB:g=original
=31	=31	=31	=31	=31	=31	=31
8An\L	.	6	4cc\	.	8ff\L	.
8AAn\J	.	.	.	.	(16aan\L	.
.	.	.	.	.	16gg\JJ)	.
8r	.	.	8r	.	(16ff\LL	.
.	.	.	.	.	16ee-y\)	.
8A\	.	5-r	8cc\	.	(16dd\	.
.	.	.	.	.	16cc\JJ)	.
8B-y\L	.	.	4f/	.	8dd/L	.
8BB-y\J	.	.	.	.	8B-y/	.
4r	.	.	4r	.	8B-y/	.
.	.	.	.	.	8dd/J	.
=32	=32	=32	=32	=32	=32	=32
8Bn\L	.	6 5	4dd\	.	8.gg\L	.
8BBn\J	.	.	.	.	.	.
.	.	.	.	.	16aa-X\Jk	.
8r	.	.	8r	.	16gg\LL	.
.	.	.	.	.	16ff\	.
8B\	.	.	8dd\	.	16ee-y\	.
.	.	.	.	.	16dd\JJ	.
8c\L	.	.	4g/	.	8ee-y/L	.
8C\J	.	.	.	.	8c/	.
8r	.	.	8r	.	8c/	.
8E-y\	.	6	8ee-y\	.	8gg/J	.
=33	=33	=33	=33	=33	=33	=33
8F\L	.	.	4cc\	.	8.aa-X\L	.
8G\	.	.	.	.	.	.
.	.	.	.	.	16gg\Jk	.
8A-X\	.	6	8r	.	16ff\LL	.
.	.	.	.	.	16ee-y\	.
8F\J	.	.	8aa-X\	.	16dd\	.
.	.	.	.	.	16cc\JJ	.
4.D\	.	6 5-r	8.aa-y\L	.	[4b-y\	.
.	.	.	16gg\Jk	.	.	.
.	.	.	[4ff\	.	(12b-y\L]	.
.	.	.	.	.	12cc\	.
8C/	.	.	.	.	.	.
.	.	.	.	.	12b-y\J)	.
=34	=34	=34	=34	=34	=34	=34
[2BB-y/	.	7-r 5	8ff\L]	.	(12dd\L	.
.	.	.	.	.	12ee-y\	.
.	.	.	8aa-X\J	.	.	.
.	.	.	.	.	12dd\J)	.
.	.	.	[4dd\	.	(12ff\L	.
.	.	.	.	.	12gg\	.
.	.	.	.	.	12ff\J)	.
8BB-y/L]	.	.	8dd\L]	.	4.aa-X\	.
8C/	.	.	8ff\J	.	.	.
8D/	.	5-r	[4b-y\	.	.	.
8BB-y/J	.	.	.	.	16gg\LL	.
.	.	.	.	.	16ff\JJ	.
=35	=35	=35	=35	=35	=35	=35
8E-y\L	.	.	8b-y/L]	.	8gg\L	.
8A-X\	.	.	8cc/	.	16ff\L	.
.	.	.	.	.	16ee-y\JJ	.
8B-y\	.	.	8f/	.	8.dd\Lt	.
8BB-y\J	.	.	8b-y/J	.	.	.
.	.	.	.	.	16ee-y\Jk	.
4.EE-y/;	.	.	4.g/;	.	4.ee-y\;	.
16r	.	.	16r	.	16r	.
16ryy	.	.	16ryy	.	16ryy	.
=:|!	=:|!	=:|!	=:|!	=:|!	=:|!	=:|!
*-	*-	*-	*-	*-	*-	*-
!!!SMS: RV 65 / Estienne Roger (No. 363), Amsterdam [facs.]
!!!ENC: Fran Bennion   rev. 05/14/21 E Correia
!!!END: 2004/10/18
!!!ONB: Converted from MuseData with musedata2hum on Sat May 11 12:01:55 2024
!!!YEM: (C) 2004, 2019 Center for Computer Assisted Research in the Humanities
!!!system-decoration: [(s1,s2,s3)]
!!!URL-info: https://wiki.ccarh.org/wiki/MuseData:_Antonio_Vivaldi#Op._1:_Suonate_da_camera_a_tr.C3.A8.2C_due_violini_e_violone_o_cembalo Information about Vivaldi Op. 1 on the CCARH wiki
!!!URL-pdf: https://pdf.musedata.org/vivaldi-op01-no07.pdf#page=2 MuseData edition
!!!URL-pdf: https://s9.imslp.org/files/imglnks/usimg/1/18/IMSLP280399-PMLP10351-Vivaldi_Sonatas_Op_1_-_Violino_Primo.pdf#page=11 Violino primo part, Amsterdam: Estienne Roger, n.d.(ca.1723). Plate 363.
!!!URL-pdf: https://s9.imslp.org/files/imglnks/usimg/d/d5/IMSLP280400-PMLP10351-Vivaldi_Sonatas_Op_1_-_Violino_Secondo.pdf#page=10 Violino secondo part, Amsterdam: Estienne Roger, n.d.(ca.1723). Plate 363.
!!!URL-pdf: https://s9.imslp.org/files/imglnks/usimg/8/89/IMSLP280401-PMLP10351-Vivaldi_Sonatas_Op_1_-_Organo_e_Violoncello.pdf#page=10 Organo e Violoncello parts, Amsterdam: Estienne Roger, n.d.(ca.1723). Plate 363.
!!!URL-youtube: https://www.youtube.com/watch?v=P5HHPe_W6Uo&t=3156s L'Arte dell'Arco
!!!title: @{OTL}, mov. @{OMV}
!!!filter-vcross: vcross
!!!mei: scoreDef@tempo.dist="6.5"
!!!EEV: 2024/05/11
!!!source-file: https://bitbucket.org/musedata/vivaldi/src/master/roger/op1/no07/stage2/02/01
!!!source-file: https://bitbucket.org/musedata/vivaldi/src/master/roger/op1/no07/stage2/02/02
!!!source-file: https://bitbucket.org/musedata/vivaldi/src/master/roger/op1/no07/stage2/02/03
!!!source-file: https://bitbucket.org/musedata/vivaldi/src/master/roger/op1/no07/stage2/02/04
